X: 271
T: Hendrie's Hornpipe
B: John Pringle "Collection of Reels Strathspeys & Jigs", 1801 p.27#1
Z: 2011 John Chambers <jc:trillian.mit.edu>
R: reel
M: C|
L: 1/8
K: Eb
V: 1
A2 | GFGA BAGF | Eede cBAG | (cAGF) BGFE | FBDF CB,A,G, | GFGA BAGF | Eedc edef |
gedc fdcB | ecB=A B2 :| e2 | dcde fdcB | gedc c=BAG | c=Bce dGBd | c=Bce dGBd |
cedf egfa | gedc fdc=B | c2 (f/g/a) gecA | GFED C3A | GFGA BAGF | Eede cBAG |
cAGF BGFE | FBDF EDCB, | G3A BGFE | CAB,G A,FG,E | G,B,EG A,CFA | GFED E2 |]
V: 2 clef=bass middle=d
z2 | E2e2 E2e2 | E2e2 E2e2 | a2a2 g2g2 | f2f2 B2z2 | E2e2 E2e2 | E2e2 E2e2 |
e4 d2e2 | f2F2 B2 :| z2 | B2b2 B2b2 | e2f2 g2G2 | e2c2 g2f2 | e2c2 g2f2 |
e2=B2 c2d2 | e2f2 g2G2 | a2f2 g2c2 | A2A2 C3z | E2e2 E2e2 | E2e2 E2e2 |
a2a2 g2g2 | f2f2 B2z2 | E2e2 E2e2 | a2g2 f2e2 | G2G2 A2A2 | B2B2 E2 |]

%%sep 2 1 500

